dist/svg/u1F6AC.svg

<?xml version="1.0" encoding="UTF-8"?><svg id="a" xmlns="http://www.w3.org/2000/svg" viewBox="0 0 40 40"><rect y="0" width="40" height="40" fill="none" opacity="0"/><g><g><rect x="14.231" y="27.974" width="20.102" height="7.111" fill="#e2e5e8"/><path d="M3.447,27.974c-1.076,0-1.947,.872-1.947,1.947v3.217c0,1.076,.872,1.947,1.947,1.947H14.231v-7.111H3.447Z" fill="#ec6700"/><path d="M36.553,27.974h-2.22v7.111h2.22c1.076,0,1.947-.872,1.947-1.947v-3.217c0-1.076-.872-1.947-1.947-1.947Z" fill="#6b7683"/></g><path d="M10.245,5.559v4.4c0,5.778,4.684,10.462,10.462,10.462h6.083c4.171,0,7.553,3.381,7.553,7.553h2.454v-5.676c0-5.114-4.145-9.259-9.259-9.259h0c-2.535,0-4.59-2.055-4.59-4.59v-2.89c0-1.46-1.184-2.644-2.644-2.644h-7.414c-1.46,0-2.644,1.184-2.644,2.644Z" fill="#cbcfd2"/></g></svg>

<svg id="Layer_1" data-name="Layer 1" xmlns="http://www.w3.org/2000/svg" viewBox="0 0 40 40"><defs><style>.cls-1{fill:none;opacity:0;}.cls-2{fill:#e2e5e8;}.cls-3{fill:#ec6700;}.cls-4{fill:#6b7683;}.cls-5{fill:#cbcfd2;}</style></defs><rect class="cls-1" width="40" height="40"/><rect class="cls-2" x="14.231" y="27.974" width="20.102" height="7.111"/><path class="cls-3" d="M3.447,27.974A1.947,1.947,0,0,0,1.5,29.921v3.217a1.947,1.947,0,0,0,1.947,1.947H14.231V27.974Z"/><path class="cls-4" d="M36.553,27.974h-2.22v7.111h2.22A1.947,1.947,0,0,0,38.5,33.138V29.921A1.947,1.947,0,0,0,36.553,27.974Z"/><path class="cls-5" d="M10.245,5.559v4.4A10.462,10.462,0,0,0,20.707,20.421H26.79a7.554,7.554,0,0,1,7.553,7.553H36.8V22.3a9.258,9.258,0,0,0-9.259-9.259h0a4.591,4.591,0,0,1-4.591-4.591V5.559A2.643,2.643,0,0,0,20.3,2.915H12.889A2.644,2.644,0,0,0,10.245,5.559Z"/></svg>
